images/icons/present.svg

<svg width="65" height="76" viewBox="0 0 65 76" fill="none" xmlns="http://www.w3.org/2000/svg">
<path d="M61.6 22.4625H61.5H36.8C50.6 15.5576 51.7 11.1546 51.2 8.75288C50 4.75007 45.5 1.74797 41.2 3.34909C35.6 5.45056 34.1 13.7564 32.6 19.7606C30.6 13.6563 28.8 5.95091 24.4 2.04818C23.1 0.947407 21.3 -0.253434 18.6 0.0467764C14.6 0.447057 8.8 5.45056 11.1 11.0545C13.4 16.4583 20.8 19.8607 25.7 22.5626H3.7H3.4C1.8 22.5626 0.5 23.8635 0.5 25.4646V36.7725C0.5 38.3736 1.8 39.6745 3.4 39.6745H3.7V72.9979V75.3996V76H61.5V75.4996V72.9979V39.5745H61.6C63.2 39.5745 64.5 38.2736 64.5 36.6724V25.3645C64.5 23.7634 63.2 22.4625 61.6 22.4625ZM42.9 5.85084C45 5.55063 47.9 7.15176 48.2 9.05309C48.6 11.8551 44.8 14.3568 43.1 15.4576C40.6 17.1588 38.2 18.0594 35.8 19.5604C36.7 15.8579 38.3 6.55133 42.9 5.85084ZM20 15.8579C17.8 14.3568 13.5 11.4548 13.6 8.05239C13.7 4.44986 19.3 1.44776 22.4 4.14965C26.3 7.55203 28.1 15.2574 29.5 20.7613C26.3 19.2602 23.2 17.9593 20 15.8579ZM26 72.9979H6.6V39.5745H26V72.9979ZM26 36.4723H3.5V25.4646H26V36.4723ZM36.2 36.4723V39.4744V72.9979H29V39.5745V36.5724V25.5647H36.2V36.4723ZM58.5 72.9979H39.1V39.5745H58.5V72.9979ZM61.4 36.4723H39.1V25.4646H61.4V36.4723Z" fill="#83B3D3"/>
</svg>

<svg xmlns="http://www.w3.org/2000/svg" width="65" height="76" fill="none" viewBox="0 0 65 76"><path fill="#83b3d3" d="M61.6 22.46H36.8c13.8-6.9 14.9-11.3 14.4-13.7-1.2-4.01-5.7-7.01-10-5.41-5.6 2.1-7.1 10.4-8.6 16.41-2-6.1-3.8-13.8-8.2-17.71-1.3-1.1-3.1-2.3-5.8-2-4 .4-9.8 5.4-7.5 11 2.3 5.4 9.7 8.81 14.6 11.51H3.4a2.9 2.9 0 0 0-2.9 2.9v11.31c0 1.6 1.3 2.9 2.9 2.9h.3V76h57.8V39.57h.1c1.6 0 2.9-1.3 2.9-2.9v-11.3c0-1.6-1.3-2.9-2.9-2.9M42.9 5.86c2.1-.3 5 1.3 5.3 3.2.4 2.8-3.4 5.3-5.1 6.4-2.5 1.7-4.9 2.6-7.3 4.1.9-3.7 2.5-13 7.1-13.7m-22.9 10c-2.2-1.5-6.5-4.4-6.4-7.8.1-3.61 5.7-6.61 8.8-3.91 3.9 3.4 5.7 11.1 7.1 16.61-3.2-1.5-6.3-2.8-9.5-4.9M26 73H6.6V39.57H26zm0-36.53H3.5v-11H26zm10.2 0V73H29V25.57h7.2zM58.5 73H39.1V39.57h19.4zm2.9-36.53H39.1v-11h22.3z"/></svg>
